!!!COA: Josquin des Prez
!!!CDT: ~1450-1521/08/27
!!!OTL@@FRA: A l'heure
!!!AGN: Chanson
!!!SCT: NJE 28.1
!!!SCA: New Josquin Edition 28.1
!!!voices: 4
**kern	**kern	**kern	**kern
*staff4	*staff3	*staff2	*staff1
*Ivox	*Ivox	*Ivox	*Ivox
*I"Bassus2	*I"Bassus1	*I"Tenor	*I"Superius
*I'B2	*I'B1	*I'T	*I'S
*clefF4	*clefGv2	*clefGv2	*clefG2
*k[b-]	*k[b-]	*k[b-]	*k[b-]
*M3/1	*M3/1	*M3/1	*M3/1
*met(O)	*met(O)	*met(O)	*met(O)
=1-	=1-	=1-	=1-
!	!	!	!LO:TX:Z=10:t=Canon at the lower 9th
0.r	1.G	0.r	1r
.	.	.	1r
.	1B-	.	.
.	.	.	1g
.	4A/	.	.
.	4G/	.	.
=2	=2	=2	=2
1r	2F/	0.r	0a
.	2.c\	.	.
1r	.	.	.
.	4B-\	.	.
.	2.d\	.	.
1F	.	.	1a
.	4c\	.	.
.	2A/	.	.
=3	=3	=3	=3
0G	1G	2r	2b-\
.	.	2.B-\	2.dd\
.	1r	.	.
.	.	4c\	4cc\
.	.	2e-i\	1cc
1G	1r	1d	.
.	.	.	2bni\
=4	=4	=4	=4
2A\	1c	1c	2cc\
2.c\	.	.	2.ee-\
.	2A/	1r	.
4B-\	.	.	4dd\
1B-	2B-\	.	1dd
.	1F	1f	.
2A\	.	.	2cc\
=5	=5	=5	=5
2B-\	2r	4f\	1dd
.	.	4e\	.
2.d\	1B-	4d\	.
.	.	4c\	.
.	.	2B-\	1r
4c\	.	.	.
1c	2A/	2c\	.
.	2F/	1d	1d
2Bni\	2G/	.	.
=6	=6	=6	=6
1c	1C	1c	2e/
.	.	.	2.g/
1r	0G	1B-	.
.	.	.	4f/
.	.	.	2d/
1C	.	1c	1e
=7	=7	=7	=7
2D\	1F	1A	2f/
2.F\	.	.	2.a/
.	0A	2f\	.
4E\	.	.	4g/
2C/	.	2e\	1g
1D	.	1d	.
.	.	.	2f#i/
=8	=8	=8	=8
2E\	1G	0.r	2g/
2.G\	.	.	2.b-\
.	2d\	.	.
4F\	.	.	4a/
1F	2A/	.	2a/
.	1B-	.	2f/
2E\	.	.	2g/
=9	=9	=9	=9
2F\	3A/V	2r	1c
.	3B-\	.	.
2.A\	.	2F/	.
.	3c\Z	.	.
.	2F/	2f\	1r
4G\	.	.	.
2G\	1B-	2d\	.
2E\	.	1c	1r
2F\	2A/	.	.
=10	=10	=10	=10
1BB-	2.B-\	1B-	0.d
.	4A/	.	.
1r	2F/	2A/	.
.	2.G/	2.B-\	.
1r	.	.	.
.	4F/	4A/	.
.	2D/	2F/	.
=11	=11	=11	=11
0.C	2C/	0c	0.e
.	2.G/	.	.
.	4E/	.	.
.	2A/	.	.
.	1G	2r	.
.	.	2c\	.
=12	=12	=12	=12
0.D	2r	2B-\	0.f
.	2.F/	2A/	.
.	.	1d	.
.	4G/	.	.
.	2B-\	.	.
.	1A	2r	.
.	.	2d\	.
=13	=13	=13	=13
0.E-i	2r	2c\	0.g
.	2.G/	2B-\	.
.	.	1e-	.
.	4A/	.	.
.	2c\	.	.
.	1B-	2r	.
.	.	2e-i\	.
=14	=14	=14	=14
0.F	2r	2d\	1r
.	2.A/	2c\	.
.	.	1f	1r
.	4B-\	.	.
.	2d\	.	.
.	1c	2r	1a
.	.	2f\	.
=15	=15	=15	=15
1r	2r	2e\	0.b-
.	2.B-\	2d\	.
1r	.	1g	.
.	4c\	.	.
.	2e-\	.	.
1G	1d	2r	.
.	.	2g\	.
=16	=16	=16	=16
0.A	2r	2f\	0cc
.	2.c\	2e\	.
.	.	1a	.
.	4d\	.	.
.	2f\	.	.
.	1e	2r	1cc
.	.	2a\	.
=17	=17	=17	=17
0B-	1d	2g\	1dd
.	.	2.f\	.
.	1r	.	2.d/
.	.	4e\	.
.	.	4d\	.
.	.	4c\	4e/
1B-	1r	1d	2f/
.	.	.	2g/
=18	=18	=18	=18
1c	0.c	0.r	2.e/
.	.	.	4f/
2.C/	.	.	2g/
.	.	.	2a/
4D\	.	.	.
2E\	.	.	2g/
2F\	.	.	2a/
=19	=19	=19	=19
2.D\	0.r	1.d	2.f/
4E\	.	.	4g/
2F\	.	.	2a/
2G\	.	2B-\	2b-\
2F\	.	2c\	2a/
2G\	.	2B-\	2b-\
=20	=20	=20	=20
2.E-i\	1.e-	0.r	2.g/
4F\	.	.	4a/
2G\	.	.	2b-\
2A\	2c\	.	2cc\
2G\	2d\	.	2b-\
2A\	2c\	.	2cc\
=21	=21	=21	=21
2.F\	0.r	1.f	2.a/
4G\	.	.	4b-\
2A\	.	.	2cc\
2B-\	.	2d\	2dd\
2A\	.	2e-\	2cc\
2B-\	.	2d\	2dd\
=22	=22	=22	=22
2.G\	2.g\	0.r	1.b-
4A\	4f\	.	.
2B-\	2d\	.	.
2c\	2e\	.	2g/
2B-\	2d\	.	1g
2c\	2e\	.	.
=23	=23	=23	=23
1.A	0.c	1r	2r
.	.	.	1cc
.	.	1r	.
2F\	.	.	2a/
1F	.	[1f	1a
=24	=24	=24	=24
2r	0.d	2f\]	2r
1B-	.	2d\	1dd
.	.	1d	.
2G\	.	.	2b-\
1G	.	[1g	1b-
=25	=25	=25	=25
2r	0c	2g\]	2.cc\
1c	.	2e\	.
.	.	.	4b-\
.	.	1e	2g/
2A\	.	.	2.a/
1A	1c	1a	.
.	.	.	4g/
.	.	.	2e/
=26	=26	=26	=26
2.B-\	2.d\	2g\	1d
.	.	2.f\	.
4A\	4c\	.	.
2F\	2A/	.	1r
.	.	4e\	.
2.G\	2.B-\	4d\	.
.	.	4c\	.
.	.	2.B-\	2r
4F\	4A/	.	.
2D\	2F/	.	2d/
.	.	4A/	.
=27	=27	=27	=27
1C	1G	1.c	1e
1r	1A	.	1f
.	.	2A/	.
2r	1G	2B-\	2g/
2C/	.	2c\	2e/
=28	=28	=28	=28
1D	2r	1A	1f
.	2d\	.	.
1E	2B-\	1r	1g
.	2c\	.	.
2F\	1A	2r	1a
2D\	.	2d\	.
=29	=29	=29	=29
1E	1r	2B-\	2r
.	.	2c\	2g/
1F	2r	1A	1a
.	2f\	.	.
1G	2d\	1r	1b-
.	[2e\	.	.
=30	=30	=30	=30
2r	2e\]	1r	2cc\
2F\	2f\	.	2a/
1G	1d	2r	1b-
.	.	2g\	.
1A	1c	2e\	1cc
.	.	2f\	.
=31	=31	=31	=31
2B-\	2r	1d	1dd
2G\	2g\	.	.
1A	2e\	2.c\	1r
.	2f\	.	.
.	.	4B-\	.
1B-	1d	1G	1dd
=32	=32	=32	=32
1c	2.c\	1r	2g/
.	.	.	2.cc\
.	4d\	.	.
1r	2e\	0C	.
.	.	.	4b-\
.	1f	.	1a
1c	.	.	.
.	2e\	.	2g/
=33	=33	=33	=33
2F\	2.f\	2F/	2a/
2.B-\	.	2.BB-/	2d/
.	4e\	.	.
.	2d\	.	2f/
4A\	.	4C/	.
1G	4c\	2E-i/	2g/
.	4B-\	.	.
.	[1d	1D	1a
2F#i\	.	.	.
=34	=34	=34	=34
2G\	2d\]	[0.Gl	[0.gl
2C/	1e-	.	.
2E-i\	.	.	.
2F\	4d\	.	.
.	4c\	.	.
[1Gl	2.e-i\	.	.
.	4d\	.	.
=35	=35	=35	=35
0.G]	0.dl	0.G]	0.g]
==	==	==	==
*-	*-	*-	*-
!!!RDF**kern: V=start of tuplet marker
!!!RDF**kern: Z=end of tuplet marker
!!!RDF**kern: l=long note in original notation
!!!RDF**kern: i=editorial accidental
!!!ENC: Jesse Rodin; Victoria Chang 2011/07/26
!!!END: 2011/07/26/
!!!EED: Jesse Rodin
!!!EEV: 2011/08/08/
!!attribution-level@Jos: 2 (slightly less secure)
!!!ONB: Translated from MusicXML and edited on 2011/08/08/ by Craig Sapp
!!muse2ps:  C^@{COM}{/}@{COA}?\n@{SCT}^v90,100,90,150I150Q16
